icon/pk/cake-two.svg

<svg viewBox="0 0 48 48" fill="none" xmlns="http://www.w3.org/2000/svg" height="1em" width="1em">
  <path d="M40 17.9L31.0577 8L9 17.9V30H40V17.9Z" stroke="black" stroke-width="4" stroke-linecap="round" stroke-linejoin="round"/>
  <path d="M9 18H26.386C26.4489 18 26.5 18.0511 26.5 18.114V21.625C26.5 23.2128 27.7872 24.5 29.375 24.5V24.5C30.9628 24.5 32.25 23.2128 32.25 21.625V18.114C32.25 18.0511 32.3011 18 32.364 18H40" stroke="black" stroke-width="4" stroke-linecap="round" stroke-linejoin="round"/>
  <path d="M9.5 23.9568C8.89836 24.2575 8.33775 24.5769 7.82243 24.913C5.41836 26.481 4 28.4118 4 30.4999C4 35.7466 12.9543 39.9999 24 39.9999C35.0457 39.9999 44 35.7466 44 30.4999C44 28.3609 42.5116 26.3869 40 24.799" stroke="black" stroke-width="4"/>
</svg>

<svg width="48" height="48" fill="none" xmlns="http://www.w3.org/2000/svg"><path d="M40 17.9 31.058 8 9 17.9V30h31V17.9Z" stroke="#000" stroke-width="4" stroke-linecap="round" stroke-linejoin="round"/><path d="M9 18h17.386c.063 0 .114.051.114.114v3.511a2.875 2.875 0 0 0 2.875 2.875v0a2.875 2.875 0 0 0 2.875-2.875v-3.511c0-.063.051-.114.114-.114H40" stroke="#000" stroke-width="4" stroke-linecap="round" stroke-linejoin="round"/><path d="M9.5 23.957c-.602.3-1.162.62-1.678.956C5.418 26.481 4 28.412 4 30.5c0 5.247 8.954 9.5 20 9.5s20-4.253 20-9.5c0-2.14-1.488-4.113-4-5.701" stroke="#000" stroke-width="4"/></svg>
